X:1
T:Title
%%score 1 2 3
L:1/8
M:3/2
K:C
V:1 treble nm="Part_1"
V:2 treble-8 nm="Part_2"
V:3 treble-8 nm="Part_3"
V:1
 D4 F4 F4 | F4 F4 F4 | G2 F2 G2 A2 F4- | F2 E2 E2 D2 F4 | z4 C4 D4 | F2 G4 F2 E2 D2 | F4 z4 G4 | %7
 F4 F4 G4 | F4 F4 F4 | F4 F4 G4 | A2 _B4 A2 G3 F | A2 B2 c2 BA G3 F | A4 z4 G4 | A6 F2 E2 D2 | %14
 F4 F4 A4 | G4 F4 G4 | F4 E2 G4 F2 | G4 A4 G2 F2 | F2 EF G2 E4 D2 | F4 z4 F4 | F2 G2 A4 A4 | %21
 G4 A2 G2 F4 | E2 C2 D4 C4 | z4 F4 D2 E2 | F4 F4 G4 | A6 G2 F2 E2 | D4 C2 B,2 D4 | z4 F6 F2 | %28
 F4 F2 G2 A2 F2 |[M:2/2] F4 E2 D2 |[M:3/2] F12 ||[M:3/2] F4 G4 G4- | G2 F2 G4 G4 | A4 G2 F2 A4 | %34
 z4 A4 A4 | G4 _B4 A2 F2 | G4 F4 z4 | F4 F4 F4 | F6 E2 F4 | G4 F4 D4 | F4 G8 | F12 |] %42
V:2
 A4 c4 c4 | c4 c4 c4 | d2 c2 d2 e2 c4- | c2 B2 B2 A2 c4 | z4 G4 A4 | c2 d4 c2 B2 A2 | c4 z4 d4 | %7
 c4 c4 d4 | c4 c4 c4 | c4 c4 d4 | e2 f4 e2 d3 c | e2 f2 g2 fe d3 c | e4 z4 d4 | e6 c2 B2 A2 | %14
 c4 c4 e4 | d4 c4 d4 | c4 B2 d4 c2 | d4 e4 d2 c2 | c2 Bc d2 B4 A2 | c4 z4 c4 | c2 d2 e4 e4 | %21
 d4 e2 d2 c4 | B2 G2 A4 G4 | z4 c4 A2 B2 | c4 c4 d4 | e6 d2 c2 B2 | A4 G2 F2 A4 | z4 c6 c2 | %28
 c4 c2 d2 e2 c2 |[M:2/2] c4 B2 A2 |[M:3/2] c12 ||[M:3/2] c4 d4 d4- | d2 c2 d4 d4 | e4 d2 c2 e4 | %34
 z4 e4 e4 | d4 f4 e2 c2 | d4 c4 z4 | c4 c4 c4 | c6 B2 c4 | d4 c4 A4 | c4 d8 | c12 |] %42
V:3
[K:F] D4 A4 A4 | A4 F4 A4 | B2 A2 B2 c2 A4 | F2 A2 G4 F4- | F4 E4 D4 | A2 B4 A2 G4 | F4 A4 G4 | %7
 A4 B8 | F12 | A8 B4 | c2 d4 c2 B4 | A2 d2 c4 B4 | A8 B4 | c4 A2 B2 G4 | F4 A4 c4 | B4 F4 B4 | %16
 A4 G4 A4 | G4 c4 B4 | A4 B4 G4 | F8 A4- | A2 B2 c4 c4 | B4 A8 | G2 E2 F4 C4- | C4 A4 F2 G2 | %24
 A4 F4 B4 | c6 B2 A2 G2 | F2 D2 E4 D4 | D4 A4 A4 | F4 A2 B2 c2 A2 |[M:2/2] F2 A2 G4 |[M:3/2] F12 || %31
[M:3/2] F4 B4 B4- | B2 A2 B2 G4 B2 | c4 B4 A4 | z4 c4 c4 | G4 d4 c2 A2 | B4 F4 z4 | A4 A4 F4 | %38
 A6 G2 F4 | B4 F8 | A4 B8 | F12 |] %42

